icon-themes/breeze_svg/cmd/lc_flowchartshapes.flowchart-multidocument.svg

<svg viewBox="0 0 24 24" xmlns="http://www.w3.org/2000/svg"><path d="m6 7v1 1h1 9v3.5625.4375.5625c.649902-.2911 1.249211-.4711 2-.5625v-1.4375-2.5625-1-1h-10z" fill="#b3b3b3"/><path d="m8 5v1 1h10v1 1 2.5625c.649902-.2911 1.249211-.4711 2-.5625v-5-1zm-4 4v1 6 1c2.8719799 3.1727 4.584947 2.1149 7.4375 0 2.064257-1.2677 2.988134-1.8085 4.5625-2v-1.4375-1-2.5625-1h-9-1z" fill="#4d4d4d"/></svg>

<svg xmlns="http://www.w3.org/2000/svg" viewBox="0 0 24 24">
 <path 
     style="fill:#b3b3b3" 
     d="M 6 7 L 6 8 L 6 9 L 7 9 L 16 9 L 16 12.5625 L 16 13 L 16 13.5625 C 16.649902 13.2714 17.249211 13.0914 18 13 L 18 11.5625 L 18 9 L 18 8 L 18 7 L 8 7 L 6 7 z "
     />
 <path 
     style="fill:#4d4d4d" 
     d="M 8 5 L 8 6 L 8 7 L 18 7 L 18 8 L 18 9 L 18 11.5625 C 18.649902 11.2714 19.249211 11.0914 20 11 L 20 6 L 20 5 L 8 5 z M 4 9 L 4 10 L 4 16 L 4 17 C 6.8719799 20.1727 8.584947 19.1149 11.4375 17 C 13.501757 15.7323 14.425634 15.1915 16 15 L 16 13.5625 L 16 12.5625 L 16 10 L 16 9 L 7 9 L 6 9 L 4 9 z "
     />
 </svg>
